.local/share/icons/Gruvbox-Plus-Dark/actions/16/symbol-remove.svg

<svg width="16" height="16" version="1.1" xmlns="http://www.w3.org/2000/svg">
  <defs>
    <style id="current-color-scheme" type="text/css">.ColorScheme-Text { color:#ebdbb2; } .ColorScheme-Highlight { color:#458588; }</style>
  </defs>
  <path class="ColorScheme-Text" d="m10 5a5 5 0 0 0-5 5 5 5 0 0 0 5 5 5 5 0 0 0 5-5 5 5 0 0 0-5-5zm0 1a4 4 0 0 1 4 4 4 4 0 0 1-4 4 4 4 0 0 1-4-4 4 4 0 0 1 4-4z" fill="currentColor" opacity=".3"/>
  <path class="ColorScheme-Text" d="m0 10 4-3v2h5v-7h2v9h-7v2z" fill="currentColor"/>
</svg>

<svg xmlns="http://www.w3.org/2000/svg" width="16" height="16" version="1.1">
 <defs>
  <style id="current-color-scheme" type="text/css">
   .ColorScheme-Text { color:#565656; } .ColorScheme-Highlight { color:#4285f4; }
  </style>
 </defs>
 <path style="opacity:0.3;fill:currentColor" class="ColorScheme-Text" d="M 10,5 A 5,5 0 0 0 5,10 5,5 0 0 0 10,15 5,5 0 0 0 15,10 5,5 0 0 0 10,5 Z M 10,6 A 4,4 0 0 1 14,10 4,4 0 0 1 10,14 4,4 0 0 1 6,10 4,4 0 0 1 10,6 Z"/>
 <path style="fill:currentColor" class="ColorScheme-Text" d="M 0,10 4,7 V 9 H 9 V 2 H 11 V 11 H 4 V 13 Z"/>
</svg>
